X:1
T:A Major        Amos Pilsbury, 1799
T:Charles Wesley, 1745              77. 447.
T:Canaan
T:Transcribed from  The United States Sacred Harmony, 1799.
%%score [ 1 2 3 4 ]
L:1/8
Q:1/4=80
M:2/4
K:A
V:1 treble nm="Tr." snm="Tr."
V:2 treble nm="C." snm="C."
V:3 treble-8 nm="T." snm="T."
V:4 bass nm="B." snm="B."
V:1
 A>B | c2 c2 | e>d cA | B2 B2- | B2 z c | d>e fd | c2 B2 | A2 A2- | A2 z2 |: z4 | z4 | z2 c>d | %12
w: |||||||||||1.~Till *|
w: |||||||||||2.~And *|
w: |||||||||||3.~Thy *|
 e2 (3dcB | A2 B2 | AG F2 | E2 E2 | A2 cd | e2 e2 | e2 ec | (A2 Bc | B2) f2 | e>d cB |1 c2 c2- | %23
w: thou ap- * *|pear, Thy|mem- * bers|here Shall|sing like *|those in|glo- ry, Shall|sing~ _ _|_ like|those~ _ _ in|glo- ry.|
w: cry a- * *|loud, And|give * to|God The|praise of *|our sal-|va- tion, The|praise~ _ _|_ of|our~ _ _ sal-|va- tion.|
w: love we * *|praise Which|knows * our|days, And|ev- er *|brings us|high- er, And|ev- * *|* er|brings~ _ _ us|high- er.|
 c3 z :|2 c2 c2- | c4 |] %26
w: |glo- ry.||
w: |–~va- tion.||
w: |high- er.||
V:2
 E2 | E2 E2 | F>G AA | G2 E2- | E2 z E | F3 D | E2 E2 | C2 C2- | C3 z |: z2 C>D | E2 E2 | E2 ED | %12
w: 1.~Head|of the|church * * tri-|um- phant,|* We|joy- ful-|ly a-|dore thee;||1.~Till *|thou ap-|pear, Thy *|
w: 2.~We|lift our|hearts * * and|voi- ces|* With|blest an-|ti- ci-|pa- tion,||2.~And *|cry a-|loud, And *|
w: 3.~While|in af-|flic- * * tion's|fur- nace,|* And|pas- sing|through the|fi- re,||3.~Thy *|love we|praise Which *|
 C2 F2 | F2 FG | A2 A2 | GE GF | E2 ED | (C3 A, | CE CA, | DF DB, | E2) A2 | GF EF |1 E2 E2- | %23
w: mem- bers|here Shall *|sing like|those * in *|glo- ry, Shall|sing~ _|_ _ _ _||* like|those * in *|glo- ry.|
w: give to|God The *|praise of|our * sal- *|va- tion, The|praise~ _|_ _ _ _||* of|our * sal- *|va- tion.|
w: knows our|days, And *|ev- er|brings * us *|nigh- er, And|ev- *|||* er|brings * us *|nigh- er.|
 E3 z :|2 E2 E2- | E4 |] %26
w: |glo- ry.||
w: |–~va- tion.||
w: |nigh- er.||
V:3
 c>B | A2 E2 | A>B cd | e2 e2- | e2 z A | B>c dB | A2 GF | E2 E2- | E3 z |: z4 | z2 c>d | e2 e2 | %12
w: ||||||||||1.~Till *|thou ap-|
w: ||||||||||2.~And *|cry a-|
w: ||||||||||3.~Thy *|love we|
 e2 dc | d2 d2 | d2 cB | c2 A2 | BA GF | E2 EE | (A2 Bc | F2 GA/B/ | E2) d2 | cB AG |1 A2 A2- | %23
w: pear, Thy *|mem- bers|here Shall *|sing like|those * in *|glo- ry, Shall|sing~ _ _|_ _ _ _|* like|those * in *|glo- ry.|
w: loud, And *|give to|God The *|praise of|our * sal- *|va- tion, The|praise~ _ _|_ _ _ _|* of|our * sal- *|va- tion.~|
w: praise Which *|knows our|days, And *|ev- er|brings * us *|nigh- er, And|ev- * *||* er|brings * us *|nigh- er.|
 A3 z :|2 A2 A2- | A4 |] %26
w: |glo- ry.||
w: |–~va- tion.||
w: |nigh- er.||
V:4
 E,2 | C,2 A,,2 | F,>G, A,2 | E,2 E,2- | E,2 z C, | D,>E, F,D, | C,2 E,2 | A,,2 A,,2- | A,,3 E, |: %9
w: ||||||||* 1.~Till|
w: ||||||||* 2.~And|
w: ||||||||* 3.~Thy|
 A,2 A,2 | A,2 C,>D, | E,2 E,2 | E,2 F,2 | D,2 B,,2 | A,,B,, C,D, | E,4 | E,2 z E, | (A,2 G,A, | %18
w: thou ap-|pear, Thy *|mem- bers|here Shall|sing like|those * in *|glo-|ry, Shall|sing~ _ _|
w: cry a-|loud, And *|give to|God The|praise of|our * sal- *|va-|tion, The|praise~ _ _|
w: love we|praise Which *|knows our|days, And|ev- er|brings * us *|nigh-|er, And|ev- * *|
 D,>C, B,,C, | A,,2) A,,2 | (E,2 F,D, | C,2) E,2 |1 A,,2 A,,2- | A,,3 E, :|2 A,,2 A,,2- | A,,4 |] %26
w: _ _ _ _|* like|those~ _ _|_ in|glo- ry.|* Till|glo- ry.||
w: _ _ _ _|* of|our~ _ _|_ sal-|va- tion.|* And|–~va- tion.||
w: |* er|brings~ _ _|_ us|nigh- er.|* Thy|nigh- er.||

